X:2
T:Anderson's  Reel 
B:CRE1.163 (Ril Mhic Aindriu)
F:file ID: cre.1/002ander
S:Sonny Brogan
M:C
L:1/8
Q:180
R:reel
K:D
dB|A2df efdB|AFF2 EDEF|A2df edef|afef d3B|
A2df efdB|AFF2 EDEF|A2df edef|afef d2||
fg|adfa bafb|adfd edBd|adfa bafb|afef defg|
adfa bafb|adfd edBd|A2FA defg|afea fdd2||

%%%

